48x48/apps/clementine.svg

<svg xmlns="http://www.w3.org/2000/svg" width="48" height="48" version="1">
 <path style="opacity:0.2" d="M 13.609485,5.0051346 C 9.8618077,5.170955 5.6195359,9.7867381 4.3650614,16.218942 4.0665971,17.830664 4.0079273,19.122999 4,20.579012 c 0.00349,0.132271 0.00364,0.263398 0.00977,0.396525 0.5059637,13.071932 11.149399,23.630565 24.25623,24.010299 0.06684,0.0028 0.13268,0.0038 0.199302,0.0059 0.859276,0.03361 1.836691,-0.04272 2.620819,-0.09583 C 40.960652,43.931981 47.402869,35.932105 42.088183,31.515733 39.07993,29.015472 33.535002,27.225272 27.732578,21.473675 21.612016,15.405008 19.870413,9.65521 17.306342,6.6889028 16.249338,5.4661669 14.96244,4.9452716 13.609485,5.0051346 Z"/>
 <path style="fill:#f17623" d="M 13.609485,4.0051473 C 9.8618077,4.1709677 5.6195359,8.7867508 4.3650614,15.218955 4.0665971,16.830677 4.0079273,18.123012 4,19.579025 c 0.00349,0.132271 0.00364,0.263398 0.00977,0.396525 0.5059637,13.071932 11.149399,23.630565 24.25623,24.010299 0.06684,0.0028 0.13268,0.0038 0.199302,0.0059 0.859276,0.03361 1.836691,-0.04272 2.620819,-0.09583 C 40.960652,42.931994 47.402869,34.932118 42.088183,30.515746 39.07993,28.015486 33.535002,26.225285 27.732578,20.473688 21.612016,14.405021 19.870413,8.6552227 17.306342,5.6889156 16.249338,4.4661796 14.96244,3.9452843 13.609485,4.0051473 Z"/>
 <path style="fill:#ffbf55" d="M 14.279,4.0337368 A 21,20.999725 0 0 0 8,19.000541 21,20.999725 0 0 0 29,40.000266 21,20.999725 0 0 0 43.949,33.723348 C 43.804,32.558363 43.22,31.453378 42.088,30.51239 39.08,28.012423 33.538,26.220446 27.738,20.469521 21.62,14.401601 19.88,8.6546763 17.316,5.6877152 16.433,4.6663286 15.388,4.1457354 14.279,4.0341368 Z"/>
 <path style="opacity:0.2" d="M 14.279297,5.0337272 C 10.264927,8.9794321 8.0026493,14.371533 8,20.000328 c 0,11.597828 9.40202,20.999724 21,20.999724 5.622486,-0.0068 11.007414,-2.268003 14.949219,-6.277261 L 41.664062,34.0353 C 38.18835,37.175163 33.710622,38.993888 29,39.000079 c -10.516437,0 -18.998931,-8.481755 -19,-18.997798 v -0.002 C 10.0026,15.3455 11.782327,10.920559 14.849609,7.4594768 Z"/>
 <path style="fill:#f4f4f7" d="M 14.279297,4.0337399 C 10.264927,7.9794448 8.0026493,13.371546 8,19.000341 c 0,11.597828 9.40202,20.999725 21,20.999725 5.622486,-0.0068 11.007414,-2.268004 14.949219,-6.277262 L 41.664062,33.035313 C 38.18835,36.175176 33.710622,37.993901 29,38.000092 c -10.516437,0 -18.998931,-8.481755 -19,-18.997798 v -0.002 c 0.0026,-4.654828 1.782327,-9.0797701 4.849609,-12.5408515 z"/>
 <path style="opacity:0.2;fill:#f4f4f7" d="M 13.609375,4.0044434 C 9.8616977,4.170264 5.6197089,8.7869358 4.3652344,15.21914 4.0667701,16.830862 4.0079273,18.122445 4,19.578458 c 0.00349,0.132271 0.00364,0.263352 0.00977,0.396479 0.00152,0.03929 0.00611,0.07794 0.00781,0.117186 C 4.037131,18.830777 4.10099,17.646072 4.3652363,16.219127 5.6197089,9.7869224 9.8616977,5.170251 13.609375,5.0044303 c 0.766028,-0.033894 1.509186,0.1258921 2.203125,0.4863219 0.03841,0.019596 0.07714,0.037721 0.115234,0.058593 0.209199,0.1165496 0.412676,0.2523441 0.611328,0.4081977 0.06932,0.053778 0.137184,0.1131642 0.205079,0.1718728 0.148319,0.1294042 0.292593,0.2706521 0.433593,0.4238226 0.04501,0.048644 0.09446,0.083621 0.138672,0.1347639 2.564,2.9669611 4.303875,8.7131358 10.421875,14.7810558 5.8,5.750925 11.34161,7.542871 14.34961,10.042838 0.02048,0.01702 0.03457,0.0356 0.05469,0.05273 0.236344,0.200781 0.44361,0.410708 0.632813,0.624992 0.0284,0.03241 0.06056,0.063 0.08789,0.0957 0.199029,0.236097 0.366737,0.481054 0.511719,0.730459 0.0076,0.01324 0.01604,0.02578 0.02344,0.03906 0.316051,0.555812 0.49879,1.141634 0.564453,1.742164 0.09673,-0.949719 -0.07491,-1.88124 -0.564453,-2.742151 -0.0074,-0.01328 -0.01586,-0.02582 -0.02344,-0.03906 -0.144982,-0.249405 -0.31269,-0.494362 -0.511719,-0.730459 -0.02733,-0.0327 -0.05949,-0.06329 -0.08789,-0.0957 -0.189203,-0.214284 -0.396469,-0.42421 -0.632813,-0.624992 -0.02012,-0.01713 -0.03421,-0.03571 -0.05469,-0.05273 -3.008,-2.499967 -8.54961,-4.291913 -14.34961,-10.042838 C 21.620281,14.401151 19.880406,8.6549761 17.316406,5.688015 17.272196,5.636872 17.222746,5.601895 17.177734,5.5532511 17.036733,5.4001348 16.89246,5.2588329 16.744141,5.1294287 16.676246,5.0707201 16.608382,5.0113342 16.539062,4.9575559 16.34041,4.8017022 16.136933,4.6659078 15.927734,4.5493582 15.889641,4.5284872 15.85091,4.510361 15.8125,4.4907653 15.118561,4.1303355 14.375403,3.9705498 13.609375,4.0044434 Z"/>
</svg>

<svg xmlns="http://www.w3.org/2000/svg" width="48" height="48" version="1"><path style="opacity:.2" d="M13.61 5.005c-3.748.166-7.99 4.782-9.245 11.214-.298 1.612-.357 2.904-.365 4.36.003.132.004.263.01.397.506 13.071 11.15 23.63 24.256 24.01l.2.006c.859.033 1.836-.043 2.62-.096 9.875-.964 16.317-8.964 11.002-13.38-3.008-2.5-8.553-4.29-14.355-10.042-6.121-6.069-7.863-11.819-10.427-14.785-1.057-1.223-2.344-1.744-3.697-1.684z"/><path style="fill:#f17623" d="M13.61 4.005c-3.748.166-7.99 4.782-9.245 11.214-.298 1.612-.357 2.904-.365 4.36.003.132.004.263.01.397.506 13.071 11.15 23.63 24.256 24.01l.2.006c.859.033 1.836-.043 2.62-.096 9.875-.964 16.317-8.964 11.002-13.38-3.008-2.5-8.553-4.29-14.355-10.042-6.121-6.069-7.863-11.819-10.427-14.785-1.057-1.223-2.344-1.744-3.697-1.684z"/><path style="fill:#ffbf55" d="M14.279 4.034A21 21 0 0 0 8 19a21 21 0 0 0 21 21 21 21 0 0 0 14.949-6.278c-.145-1.165-.729-2.27-1.861-3.21-3.008-2.5-8.55-4.293-14.35-10.043C21.62 14.402 19.88 8.655 17.316 5.688c-.883-1.022-1.928-1.542-3.037-1.654z"/><path style="opacity:.2" d="M14.28 5.034A21 21 0 0 0 8 20c0 11.598 9.402 21 21 21a21 21 0 0 0 14.95-6.277l-2.286-.688C38.188 37.175 33.711 38.994 29 39a18.97 18.97 0 0 1-19-18.998V20c.003-4.655 1.782-9.08 4.85-12.54z"/><path style="fill:#f4f4f7" d="M14.28 4.034A21 21 0 0 0 8 19c0 11.598 9.402 21 21 21a21 21 0 0 0 14.95-6.277l-2.286-.688C38.188 36.175 33.711 37.994 29 38a18.97 18.97 0 0 1-19-18.998V19c.003-4.655 1.782-9.08 4.85-12.54z"/><path style="opacity:.2;fill:#f4f4f7" d="M13.61 4.004C9.861 4.17 5.62 8.787 4.364 15.22c-.298 1.612-.357 2.903-.365 4.36.003.132.004.263.01.396.001.04.006.078.008.117.02-1.261.083-2.446.347-3.873C5.62 9.787 9.862 5.17 13.61 5.004a4.31 4.31 0 0 1 2.204.487c.038.02.077.037.115.058.209.117.412.253.611.409.07.053.137.113.205.171.148.13.293.271.434.424.045.049.094.084.138.135 2.564 2.967 4.304 8.713 10.422 14.781 5.8 5.751 11.342 7.543 14.35 10.043.02.017.034.035.055.053.236.2.443.41.632.625.029.032.061.063.088.095.2.236.367.481.512.73l.023.04c.316.556.5 1.141.565 1.742a4.523 4.523 0 0 0-.565-2.742l-.023-.04a5.117 5.117 0 0 0-.512-.73c-.027-.032-.06-.063-.088-.095a6.176 6.176 0 0 0-.632-.625c-.02-.017-.035-.036-.055-.053-3.008-2.5-8.55-4.292-14.35-10.043C21.62 14.401 19.88 8.655 17.316 5.688c-.044-.051-.093-.086-.138-.135a5.555 5.555 0 0 0-.434-.424c-.068-.058-.136-.118-.205-.171a4.68 4.68 0 0 0-.611-.409l-.116-.058a4.31 4.31 0 0 0-2.203-.487z"/></svg>
